ui/StatusQ/src/assets/img/icons/network/Network=Custom.svg

<svg fill="none" height="531" viewBox="0 0 531 531" width="531" xmlns="http://www.w3.org/2000/svg"><path d="m0 265.5c0-146.632 118.868-265.5 265.5-265.5s265.5 118.868 265.5 265.5-118.868 265.5-265.5 265.5-265.5-118.868-265.5-265.5z" fill="#eef2f5"/><path clip-rule="evenodd" d="m216.241 367.649c1.216-3.539 4.394-6.17 8.135-6.17h85.248c3.741 0 6.919 2.631 8.135 6.17 7.515 21.878 28.271 37.601 52.699 37.601 30.767 0 55.709-24.941 55.709-55.708s-24.942-55.708-55.709-55.708c-3.125 0-6.191.257-9.177.752-3.685.611-7.502-.932-9.282-4.216l-45.545-84.03c-1.781-3.287-.987-7.331 1.545-10.081 9.132-9.923 14.709-23.169 14.709-37.717 0-30.767-24.941-55.709-55.708-55.709s-55.708 24.942-55.708 55.709c0 14.548 5.577 27.795 14.71 37.717 2.531 2.75 3.325 6.795 1.544 10.081l-45.542 84.031c-1.78 3.284-5.598 4.826-9.283 4.215-2.986-.495-6.053-.752-9.179-.752-30.767 0-55.709 24.941-55.709 55.708s24.942 55.708 55.709 55.708c24.428 0 45.184-15.723 52.699-37.601zm32.297-149.936c1.78-3.284 5.598-4.827 9.283-4.216 2.986.495 6.053.753 9.179.753 3.127 0 6.193-.258 9.179-.753 3.685-.611 7.503.932 9.283 4.216l45.544 84.028c1.781 3.287.987 7.332-1.545 10.082-5.154 5.6-9.177 12.259-11.703 19.613-1.215 3.538-4.393 6.168-8.134 6.168h-85.248c-3.741 0-6.919-2.63-8.134-6.168-2.526-7.353-6.548-14.012-11.702-19.611-2.531-2.751-3.325-6.795-1.544-10.082zm-53.163 131.829c0 17.581-14.252 31.833-31.833 31.833s-31.834-14.252-31.834-31.833 14.253-31.833 31.834-31.833 31.833 14.252 31.833 31.833zm206.917 0c0 17.581-14.253 31.833-31.834 31.833s-31.833-14.252-31.833-31.833 14.252-31.833 31.833-31.833 31.834 14.252 31.834 31.833zm-103.459-191c0 17.581-14.252 31.833-31.833 31.833s-31.833-14.252-31.833-31.833 14.252-31.834 31.833-31.834 31.833 14.253 31.833 31.834z" fill="#939ba1" fill-rule="evenodd"/><path d="m265.5 530c-146.079 0-264.5-118.421-264.5-264.5h-2c0 147.184 119.316 266.5 266.5 266.5zm264.5-264.5c0 146.079-118.421 264.5-264.5 264.5v2c147.184 0 266.5-119.316 266.5-266.5zm-264.5-264.5c146.079 0 264.5 118.421 264.5 264.5h2c0-147.184-119.316-266.5-266.5-266.5zm0-2c-147.184 0-266.5 119.316-266.5 266.5h2c0-146.079 118.421-264.5 264.5-264.5z" fill="#000" fill-opacity=".1"/></svg>

<svg width="531" height="531" viewBox="0 0 531 531" fill="none" xmlns="http://www.w3.org/2000/svg">
<path d="M0 265.5C0 118.868 118.868 0 265.5 0C412.132 0 531 118.868 531 265.5C531 412.132 412.132 531 265.5 531C118.868 531 0 412.132 0 265.5Z" fill="#EEF2F5"/>
<path fill-rule="evenodd" clip-rule="evenodd" d="M216.241 367.649C217.457 364.11 220.635 361.479 224.376 361.479H309.624C313.365 361.479 316.543 364.11 317.759 367.649C325.274 389.527 346.03 405.25 370.458 405.25C401.225 405.25 426.167 380.309 426.167 349.542C426.167 318.775 401.225 293.834 370.458 293.834C367.333 293.834 364.267 294.091 361.281 294.586C357.596 295.197 353.779 293.654 351.999 290.37L306.454 206.34C304.673 203.053 305.467 199.009 307.999 196.259C317.131 186.336 322.708 173.09 322.708 158.542C322.708 127.775 297.767 102.833 267 102.833C236.233 102.833 211.292 127.775 211.292 158.542C211.292 173.09 216.869 186.337 226.002 196.259C228.533 199.009 229.327 203.054 227.546 206.34L182.004 290.371C180.224 293.655 176.406 295.197 172.721 294.586C169.735 294.091 166.668 293.834 163.542 293.834C132.775 293.834 107.833 318.775 107.833 349.542C107.833 380.309 132.775 405.25 163.542 405.25C187.97 405.25 208.726 389.527 216.241 367.649ZM248.538 217.713C250.318 214.429 254.136 212.886 257.821 213.497C260.807 213.992 263.874 214.25 267 214.25C270.127 214.25 273.193 213.992 276.179 213.497C279.864 212.886 283.682 214.429 285.462 217.713L331.006 301.741C332.787 305.028 331.993 309.073 329.461 311.823C324.307 317.423 320.284 324.082 317.758 331.436C316.543 334.974 313.365 337.604 309.624 337.604H224.376C220.635 337.604 217.457 334.974 216.242 331.436C213.716 324.083 209.694 317.424 204.54 311.825C202.009 309.074 201.215 305.03 202.996 301.743L248.538 217.713ZM195.375 349.542C195.375 367.123 181.123 381.375 163.542 381.375C145.961 381.375 131.708 367.123 131.708 349.542C131.708 331.961 145.961 317.709 163.542 317.709C181.123 317.709 195.375 331.961 195.375 349.542ZM402.292 349.542C402.292 367.123 388.039 381.375 370.458 381.375C352.877 381.375 338.625 367.123 338.625 349.542C338.625 331.961 352.877 317.709 370.458 317.709C388.039 317.709 402.292 331.961 402.292 349.542ZM298.833 158.542C298.833 176.123 284.581 190.375 267 190.375C249.419 190.375 235.167 176.123 235.167 158.542C235.167 140.961 249.419 126.708 267 126.708C284.581 126.708 298.833 140.961 298.833 158.542Z" fill="#939BA1"/>
<path d="M265.5 530C119.421 530 1 411.579 1 265.5H-1C-1 412.684 118.316 532 265.5 532V530ZM530 265.5C530 411.579 411.579 530 265.5 530V532C412.684 532 532 412.684 532 265.5H530ZM265.5 1C411.579 1 530 119.421 530 265.5H532C532 118.316 412.684 -1 265.5 -1V1ZM265.5 -1C118.316 -1 -1 118.316 -1 265.5H1C1 119.421 119.421 1 265.5 1V-1Z" fill="black" fill-opacity="0.1"/>
</svg>
